X:1
T:Hllestrand
R:Engelska
C:Jonas Brunskog
O:Skne
Q:1/4=90
M:2/4
L:1/16
K:G
|:GDCD (B,A,)G,2|GDCD =F4|GDCD (B,A,)G,2| GAG^F G4:|
|:GAcd (cA)G=F|GAcd g4|GAcd (cA)G=F| GAG^F G4:|
